packages/ui-icons/src/Basic/24/Personal-offer_24.svg

<svg xmlns="http://www.w3.org/2000/svg" viewBox="0 0 32 32"><path d="M26 22h-5v-5h-4v-3.1a5 5 0 0 0 3-1.9h1.53a3.5 3.5 0 0 0 0-7H21V4H11v1h-.5a3.5 3.5 0 1 0 0 7h1.53A5 5 0 0 0 15 13.89V17h-4v5H6v6h20ZM21 9V7h.5a1.5 1.5 0 0 1 0 3h-.6a5 5 0 0 0 .1-1Zm-10.5 1a1.5 1.5 0 1 1 0-3h.5v2a5 5 0 0 0 .1 1ZM13 9V6h6v3a3 3 0 0 1-6 0Zm11 17H8v-2h5v-5h6v5h5Z"/></svg>

<svg id="Ready" xmlns="http://www.w3.org/2000/svg" viewBox="0 0 32 32"><title>Megaicons_work_24_1.8_cp</title><path d="M26,22H21V17H17V13.9A5,5,0,0,0,20,12h1.53a3.5,3.5,0,0,0,0-7H21V4H11V5h-.5a3.5,3.5,0,1,0,0,7h1.53A5,5,0,0,0,15,13.89V17H11v5H6v6H26ZM21,9V7h.5a1.5,1.5,0,0,1,0,3h-.6A5,5,0,0,0,21,9Zm-10.5,1a1.5,1.5,0,1,1,0-3H11V9a5,5,0,0,0,.1,1ZM13,9V6h6V9a3,3,0,0,1-6,0ZM24,26H8V24h5V19h6v5h5Z"/></svg>
